src/icons/git.svg

<?xml version="1.0" encoding="UTF-8"?>
<svg xmlns="http://www.w3.org/2000/svg" xmlns:xlink="http://www.w3.org/1999/xlink" width="32" height="32" viewBox="0 0 32 32" version="1.1">
<g id="surface1">
<path style=" stroke:none;fill-rule:nonzero;fill:rgb(6.27451%,5.882353%,5.098039%);fill-opacity:1;" d="M 32.652344 13.878906 L 18.121094 -0.652344 C 17.285156 -1.488281 15.925781 -1.488281 15.089844 -0.652344 L 12.074219 2.367188 L 15.902344 6.195312 C 16.820312 5.882812 17.839844 6.121094 18.523438 6.8125 C 19.207031 7.5 19.441406 8.519531 19.125 9.4375 L 22.8125 13.128906 C 23.933594 12.742188 25.175781 13.179688 25.804688 14.183594 C 26.4375 15.191406 26.289062 16.5 25.449219 17.339844 C 24.589844 18.199219 23.242188 18.332031 22.230469 17.660156 C 21.21875 16.984375 20.824219 15.691406 21.285156 14.566406 L 17.84375 11.125 L 17.84375 20.179688 C 18.085938 20.296875 18.316406 20.457031 18.519531 20.660156 C 19.316406 21.453125 19.496094 22.675781 18.964844 23.664062 C 18.433594 24.65625 17.320312 25.183594 16.21875 24.960938 C 15.117188 24.742188 14.289062 23.824219 14.179688 22.707031 C 14.074219 21.589844 14.710938 20.53125 15.75 20.105469 L 15.75 10.96875 C 15.121094 10.710938 14.621094 10.214844 14.359375 9.585938 C 14.097656 8.957031 14.101562 8.25 14.363281 7.621094 L 10.589844 3.847656 L 0.628906 13.8125 C 0.226562 14.214844 0 14.757812 0 15.328125 C 0 15.898438 0.226562 16.441406 0.628906 16.84375 L 15.160156 31.371094 C 15.996094 32.210938 17.351562 32.210938 18.191406 31.371094 L 32.652344 16.910156 C 33.488281 16.074219 33.488281 14.71875 32.652344 13.878906 "/>
</g>
</svg>

<svg role="img" viewBox="0 0 32 32" xmlns="http://www.w3.org/2000/svg"><path d="M32.652 13.879 18.122-.652a2.145 2.145 0 0 0-3.032 0l-3.016 3.02 3.828 3.827a2.546 2.546 0 0 1 3.223 3.242l3.688 3.692a2.549 2.549 0 0 1 2.637 4.21 2.551 2.551 0 0 1-4.164-2.773l-3.442-3.441v9.055c.242.117.472.277.676.48a2.549 2.549 0 1 1-2.77-.555V10.97a2.552 2.552 0 0 1-1.387-3.348L10.59 3.848.629 13.813a2.138 2.138 0 0 0 0 3.03L15.16 31.372c.836.84 2.192.84 3.031 0l14.461-14.46a2.145 2.145 0 0 0 0-3.032" style="stroke:none;fill-rule:nonzero;fill:rgb(6.27451%,5.882353%,5.098039%);fill-opacity:1"/></svg>
